packages/ffe-icons/icons/filled/lg/broken_image.svg

<svg xmlns="http://www.w3.org/2000/svg" height="40" viewBox="0 -960 960 960" width="40"><path d="M202.565-140.001q-25.846 0-44.205-18.359-18.359-18.359-18.359-44.205v-249.332l69.82 69.819q9.359 9.359 21.923 9.359 12.564 0 21.922-9.359l144.026-144.026 142.949 142.949q9.359 9.359 21.795 9.359 12.436 0 21.795-9.359l143.615-143.359 92.153 92.152v231.797q0 25.846-18.359 44.205-18.359 18.359-44.205 18.359h-554.87Zm0-679.998h554.87q25.846 0 44.205 18.359 18.359 18.359 18.359 44.205v251.691l-70.23-70.23q-9.359-9.358-21.923-9.358-12.564 0-21.923 9.358l-143.359 143.36-143.205-142.949q-9.359-9.359-21.795-9.359-12.436 0-21.795 9.359L231.744-431.537l-91.743-91.742v-234.156q0-25.846 18.359-44.205 18.359-18.359 44.205-18.359Z"/></svg>

<svg xmlns="http://www.w3.org/2000/svg" viewBox="0 -960 960 960" width="32" height="32"><path d="M202.57-140q-25.85 0-44.21-18.36T140-202.57V-451.9l69.82 69.82q9.36 9.36 21.92 9.36 12.57 0 21.93-9.36L397.69-526.1l142.95 142.95q9.36 9.35 21.8 9.35 12.43 0 21.79-9.35l143.62-143.36L820-434.36v231.79q0 25.85-18.36 44.21T757.43-140H202.57Zm0-680h554.86q25.85 0 44.21 18.36T820-757.43v251.69l-70.23-70.23q-9.36-9.36-21.92-9.36-12.57 0-21.93 9.36L562.56-432.61l-143.2-142.95q-9.36-9.36-21.8-9.36-12.43 0-21.79 9.36L231.74-431.54 140-523.28v-234.15q0-25.85 18.36-44.21T202.57-820Z"/></svg>
